X:1
T:Title
%%score { 1 | 2 }
L:1/8
Q:1/4=112
M:4/4
K:G
V:1 treble nm="Grand Piano"
V:2 treble 
V:1
 G4 A2 B2 | e2 d2 G2 c2 | B6 z2 | B4 [^CE]2 [CB]2 | [^CA]6 z2 | A4 D2 A2 | [B,G]6 z2 | G4 A2 B2 | %8
w: Robert~Harkness * *||||||||
 e2 d2 G2 c2 | B6 z2 | B4 [^CE]2 [CB]2 | [^CA]6 z2 | A4 D2 A2 | [B,G]6 z2 |] %14
w: ||||||
V:2
 [G,B,]4 [G,CG]2 [G,DG]2 | [A,CG]2 [G,B,G]2 [B,D]2 [G,EG]2 | [G,DG]6 z2 | %3
 [E,G,^C]4 [A,,G,]2 [A,,G,]2 | [A,,G,]6 z2 | [D,F,C]4 [D,F,C]2 [D,F,C]2 | [G,,G,]6 z2 | %7
 [G,B,]4 [G,CG]2 [G,DG]2 | [G,CG]2 [G,B,G]2 [B,D]2 [G,EG]2 | [G,DG]6 z2 | %10
 [E,G,^C]4 [A,,G,]2 [A,,G,]2 | [A,,G,]6 z2 | [D,F,C]4 [D,F,C]2 [D,F,C]2 | [G,,G,]6 z2 |] %14

